dist/svg/callback.svg

<!-- Generated by Trend Micro Style Portal -->
<svg version="1.1" xmlns="http://www.w3.org/2000/svg" width="16" height="16" viewBox="0 0 16 16">
  <title>callback</title>
  <path fill="rgb(34,34,34)" d="M0 7.96v0.012c-0 0.004-0 0.010-0 0.015 0 1.967 0.709 3.767 1.885 5.161l-0.010-0.012-0.010-0.012-1.865 1.876h5v-5.028l-2.067 2.078c-0.893-1.11-1.433-2.537-1.433-4.091 0-2.488 1.387-4.653 3.43-5.763l0.035-0.017 0.035-0.017v-1.662c-2.959 1.239-5 4.11-5 7.459 0 0 0 0.001 0 0.001v0zM9 0.383c-0.264-0.237-0.615-0.383-1-0.383-0.828 0-1.5 0.671-1.5 1.5 0 0 0 0 0 0v0c0 0.064 0.004 0.126 0.012 0.187l-0.001-0.007-0-0.007c0.089 0.751 0.722 1.327 1.49 1.327 0.765 0 1.396-0.573 1.488-1.313l0.001-0.007 0.001-0.007c0.006-0.050 0.010-0.109 0.010-0.168 0-0.002 0-0.003-0-0.005v-0c0-0.001 0-0.001 0-0.002 0-0.442-0.192-0.839-0.497-1.113l-0.001-0.001-0.002-0.001zM9.415 14c-0.212-0.588-0.765-1.001-1.414-1.001-0.765 0-1.397 0.573-1.488 1.314l-0.001 0.007-0 0.007c-0.006 0.050-0.010 0.109-0.010 0.168 0 0.002 0 0.003 0 0.005v-0c0 0.828 0.672 1.5 1.5 1.5s1.5-0.672 1.5-1.5v0 0c-0-0.064-0.004-0.126-0.012-0.187l0.001 0.007 0.001 0.007c-0.014-0.125-0.042-0.24-0.082-0.348l0.003 0.010 0.004 0.011zM16 1h-5v5.028l2.066-2.078c0.893 1.11 1.434 2.537 1.434 4.091 0 2.488-1.387 4.653-3.43 5.763l-0.034 0.017-0.036 0.017v1.662c2.959-1.241 5-4.114 5-7.463 0-1.974-0.709-3.783-1.886-5.185l0.010 0.012 0.010 0.012z"></path>
</svg>

<svg width="16" height="16" viewBox="0 0 16 16" fill="rgb(34, 34, 34)" xmlns="http://www.w3.org/2000/svg"><title>callback</title><path d="M0 7.96V7.972C0 7.976 0 7.982 0 7.987C0 9.954 0.709 11.754 1.885 13.148L1.875 13.136L1.865 13.124L0 15H5V9.972L2.933 12.05C2.04 10.94 1.5 9.513 1.5 7.959C1.5 5.471 2.887 3.306 4.93 2.196L4.965 2.179L5 2.162V0.5C2.041 1.739 0 4.611 0 7.96ZM9 0.383C8.736 0.146 8.385 0 8 0C7.172 0 6.5 0.671 6.5 1.5C6.5 1.564 6.504 1.626 6.512 1.687L6.511 1.68V1.673C6.6 2.424 7.233 3 8.001 3C8.766 3 9.397 2.427 9.489 1.687L9.49 1.68L9.491 1.673C9.497 1.623 9.501 1.564 9.501 1.505C9.501 1.503 9.501 1.502 9.501 1.5C9.501 1.499 9.501 1.499 9.501 1.498C9.501 1.056 9.309 0.659 9.004 0.385L9.003 0.384L9.001 0.383H9ZM9.415 14C9.203 13.412 8.65 12.999 8.001 12.999C7.236 12.999 6.604 13.572 6.513 14.313L6.512 14.32V14.327C6.506 14.377 6.502 14.436 6.502 14.495C6.502 14.497 6.502 14.498 6.502 14.5C6.502 15.328 7.174 16 8.002 16C8.83 16 9.502 15.328 9.502 14.5C9.502 14.436 9.498 14.374 9.49 14.313L9.491 14.32L9.492 14.327C9.478 14.202 9.45 14.087 9.41 13.979L9.413 13.989L9.417 14H9.415ZM16 1H11V6.028L13.066 3.95C13.959 5.06 14.5 6.487 14.5 8.041C14.5 10.529 13.113 12.694 11.07 13.804L11.036 13.821L11 13.838V15.5C13.959 14.259 16 11.386 16 8.037C16 6.063 15.291 4.254 14.114 2.852L14.124 2.864L14.134 2.876L16 1Z" fill="rgb(34, 34, 34)" fill-opacity="1.00"/></svg>
